X: 22262
T: La Mal-Aimable
R: waltz
M: 3/4
K: Aminor
|:"Am"e2 c2 B2|"F"A2 FA Bc|"G"B2 GB cd|"Cmaj7"e2 Be Be|
"Am"e2 c2 B2|"F" A2 FA Bc|"G"B2 GB cd|"Em/E"B6:|
"Fmaj7"c2 Ac Ac|"F"f2 cf cf|"Cmaj7"B2 GB GB|"Em"e2 Be Be|
"Fmaj7"A2 FA FA|"Dm"d2 Ad Ad|"Em7"B2 EB cd|"Emaj7"B4 AB|
"Fmaj7"c2 Ac Ac|"F"f2 cf cf|"Cmaj7"B2 GB GB|"Em"e2 Be Be|
"Fmaj7"A2 FA FA|"Dm"d2 Ad Ad|"Em7"B2 EB cB|"Am"A6|

